X:1958
T:Boy in the Gap
M:4/4
L:1/8
Q:160
C:Trad
K:G
D2 FA dedc | A2 GE cEGE | D2 FA dedc | A2 GF EFGE | D2 FA dedc | A2 GE c
EGE | DEFA dedc | A2 GEED D2 :|
K:D
|: f2 fgfe d2 | e2 fd edcB | ABcd e2 cd | eaag eaag | fafa fedf | egfd e
dcB | ABcd e2 dc | A2 GEED D2 :|


